img/Vector.svg

<svg width="199" height="82" viewBox="0 0 199 82" fill="none" xmlns="http://www.w3.org/2000/svg">
<path d="M0.5 62.6359V0.5H185.444C180.002 1.41672 175.763 2.93656 172.47 4.9463C166.807 8.40201 163.992 13.2736 162.639 18.8673C161.293 24.4345 161.391 30.7398 161.551 37.0863C161.558 37.3814 161.566 37.6765 161.574 37.9717C161.729 44.0537 161.886 50.155 160.883 55.7909C159.834 61.6828 157.523 67.0276 152.637 71.2598C147.743 75.4996 140.21 78.6691 128.626 80.0937C105.488 82.9394 66.3902 78.8002 0.5 62.6359Z" fill="#EAB665" stroke="#E39212"/>
</svg>

<svg xmlns="http://www.w3.org/2000/svg" fill="none" viewBox="0 0 199 82"><path fill="#EAB665" stroke="#E39212" d="M.5 62.636V.5h184.944c-5.442.917-9.681 2.437-12.974 4.446-5.663 3.456-8.478 8.328-9.831 13.921-1.346 5.567-1.248 11.873-1.088 18.22l.023.885c.155 6.082.312 12.183-.691 17.819-1.049 5.892-3.36 11.237-8.246 15.469-4.894 4.24-12.427 7.41-24.011 8.834C105.488 82.939 66.39 78.8.5 62.636z"/></svg>
